X: 10000
T: Devils Of Dublin
R: reel
M: 4/4
K: Dmajor
|:dAcA BAFB|AFBF AFEF|Ad~d2 Adfd|(3efe df eBBA|
(3dcB (3cBA BAFB|AFBF AFEF|ABdg fdec|dBAG FDD2:|
|:a2agf3e|~d2cd BAFB|Ad~d2 Adfd|(3efe df eBBA|
~a2gaf3e|~d2cd BAFB|ABdg fdec|dBAG FDD2:|

